X: 21392
T: JENNY DRINKS NAE WATER
%R: reel
B: "Edinburgh Repository of Music" v.2 p.139 #2
F: http://digital.nls.uk/special-collections-of-printed-music/pageturner.cfm?id=87776133
Z: 2015 John Chambers <jc:trillian.mit.edu>
N: The final repeat : is obscured by being over the D's stem, but it's there.
M: C|
L: 1/8
K: D
B>c |\
dcBA d3f | e2 E4 Bc | dAcA d3A | F2D2 D2a2 |\
fa{c'}ba ~f>gaf | {a}g>f {f}e>d {f}e2de | f2ed BdAd | F2D2 D2 :|
|: Bc |\
dcBA BcdB | edcB cdec | {e}dcde defg | abag fgaf |\
gabg fgaf | {a}gfed e2de | {de}f2ed B<d A<d | F2D2 D2 :|
